public/img/sunset.svg

<?xml version="1.0" encoding="UTF-8"?>
<svg xmlns="http://www.w3.org/2000/svg" xmlns:xlink="http://www.w3.org/1999/xlink" width="10pt" height="10pt" viewBox="0 0 10 10" version="1.1">
<g id="surface1">
<path style=" stroke:none;fill-rule:nonzero;fill:rgb(0%,0%,0%);fill-opacity:1;" d="M 5.085938 4.738281 C 4.992188 4.738281 4.914062 4.816406 4.914062 4.914062 L 4.914062 5.261719 C 4.914062 5.359375 4.992188 5.4375 5.085938 5.4375 C 5.183594 5.4375 5.261719 5.359375 5.261719 5.261719 L 5.261719 4.914062 C 5.261719 4.816406 5.183594 4.738281 5.085938 4.738281 Z M 5.085938 4.738281 "/>
<path style=" stroke:none;fill-rule:nonzero;fill:rgb(0%,0%,0%);fill-opacity:1;" d="M 0.527344 5.4375 L 0.175781 5.4375 C 0.078125 5.4375 0 5.515625 0 5.613281 C 0 5.710938 0.078125 5.789062 0.175781 5.789062 L 0.527344 5.789062 C 0.625 5.789062 0.703125 5.710938 0.703125 5.613281 C 0.703125 5.515625 0.625 5.4375 0.527344 5.4375 Z M 0.527344 5.4375 "/>
<path style=" stroke:none;fill-rule:nonzero;fill:rgb(0%,0%,0%);fill-opacity:1;" d="M 1.753906 5.4375 L 1.050781 5.4375 C 0.957031 5.4375 0.878906 5.515625 0.878906 5.613281 C 0.878906 5.710938 0.957031 5.789062 1.050781 5.789062 L 1.753906 5.789062 C 1.851562 5.789062 1.929688 5.710938 1.929688 5.613281 C 1.929688 5.515625 1.851562 5.4375 1.753906 5.4375 Z M 1.753906 5.4375 "/>
<path style=" stroke:none;fill-rule:nonzero;fill:rgb(0%,0%,0%);fill-opacity:1;" d="M 9.296875 5.4375 L 8.421875 5.4375 C 8.324219 5.4375 8.246094 5.515625 8.246094 5.613281 C 8.246094 5.710938 8.324219 5.789062 8.421875 5.789062 L 9.296875 5.789062 C 9.394531 5.789062 9.472656 5.710938 9.472656 5.613281 C 9.472656 5.515625 9.394531 5.4375 9.296875 5.4375 Z M 9.296875 5.4375 "/>
<path style=" stroke:none;fill-rule:nonzero;fill:rgb(0%,0%,0%);fill-opacity:1;" d="M 5.085938 1.226562 C 4.992188 1.226562 4.914062 1.304688 4.914062 1.402344 L 4.914062 2.28125 C 4.914062 2.378906 4.992188 2.457031 5.085938 2.457031 C 5.183594 2.457031 5.261719 2.378906 5.261719 2.28125 L 5.261719 1.402344 C 5.261719 1.304688 5.183594 1.226562 5.085938 1.226562 Z M 5.085938 1.226562 "/>
<path style=" stroke:none;fill-rule:nonzero;fill:rgb(0%,0%,0%);fill-opacity:1;" d="M 5.085938 0.527344 C 4.992188 0.527344 4.914062 0.605469 4.914062 0.703125 L 4.914062 0.878906 C 4.914062 0.972656 4.992188 1.050781 5.085938 1.050781 C 5.183594 1.050781 5.261719 0.972656 5.261719 0.878906 L 5.261719 0.703125 C 5.261719 0.605469 5.183594 0.527344 5.085938 0.527344 Z M 5.085938 0.527344 "/>
<path style=" stroke:none;fill-rule:nonzero;fill:rgb(0%,0%,0%);fill-opacity:1;" d="M 2.125 4.238281 C 2.105469 4.222656 2.085938 4.214844 2.0625 4.210938 L 1.46875 3.964844 C 1.382812 3.921875 1.277344 3.957031 1.234375 4.046875 C 1.195312 4.132812 1.230469 4.238281 1.320312 4.28125 C 1.324219 4.28125 1.332031 4.285156 1.339844 4.289062 L 1.929688 4.527344 C 2.011719 4.582031 2.121094 4.558594 2.171875 4.480469 C 2.226562 4.398438 2.207031 4.289062 2.125 4.238281 Z M 2.125 4.238281 "/>
<path style=" stroke:none;fill-rule:nonzero;fill:rgb(0%,0%,0%);fill-opacity:1;" d="M 0.945312 3.75 L 0.808594 3.695312 C 0.71875 3.660156 0.617188 3.703125 0.582031 3.792969 C 0.542969 3.882812 0.589844 3.988281 0.679688 4.023438 L 0.8125 4.078125 C 0.832031 4.085938 0.855469 4.089844 0.878906 4.085938 C 0.972656 4.089844 1.054688 4.011719 1.054688 3.914062 C 1.054688 3.839844 1.011719 3.777344 0.945312 3.75 Z M 0.945312 3.75 "/>
<path style=" stroke:none;fill-rule:nonzero;fill:rgb(0%,0%,0%);fill-opacity:1;" d="M 6.71875 1.550781 C 6.632812 1.523438 6.542969 1.558594 6.503906 1.640625 L 6.171875 2.457031 C 6.136719 2.546875 6.179688 2.648438 6.269531 2.683594 C 6.269531 2.6875 6.269531 2.6875 6.269531 2.6875 C 6.359375 2.722656 6.460938 2.679688 6.5 2.589844 L 6.828125 1.773438 C 6.859375 1.679688 6.808594 1.582031 6.71875 1.550781 Z M 6.71875 1.550781 "/>
<path style=" stroke:none;fill-rule:nonzero;fill:rgb(0%,0%,0%);fill-opacity:1;" d="M 6.980469 0.902344 C 6.898438 0.875 6.804688 0.914062 6.765625 0.996094 L 6.679688 1.207031 C 6.640625 1.296875 6.683594 1.398438 6.773438 1.433594 C 6.777344 1.433594 6.777344 1.433594 6.777344 1.433594 C 6.867188 1.472656 6.96875 1.429688 7.003906 1.339844 L 7.089844 1.125 C 7.121094 1.035156 7.074219 0.933594 6.980469 0.902344 Z M 6.980469 0.902344 "/>
<path style=" stroke:none;fill-rule:nonzero;fill:rgb(0%,0%,0%);fill-opacity:1;" d="M 8.597656 4.207031 C 8.566406 4.117188 8.46875 4.066406 8.375 4.097656 C 8.371094 4.097656 8.363281 4.101562 8.355469 4.105469 L 8.113281 4.210938 C 8.015625 4.230469 7.957031 4.324219 7.976562 4.417969 C 7.996094 4.511719 8.089844 4.574219 8.183594 4.554688 C 8.207031 4.550781 8.226562 4.539062 8.246094 4.527344 L 8.488281 4.429688 C 8.578125 4.398438 8.628906 4.300781 8.597656 4.207031 Z M 8.597656 4.207031 "/>
<path style=" stroke:none;fill-rule:nonzero;fill:rgb(0%,0%,0%);fill-opacity:1;" d="M 9.828125 3.707031 C 9.796875 3.617188 9.695312 3.566406 9.605469 3.597656 C 9.597656 3.597656 9.589844 3.601562 9.585938 3.605469 L 8.882812 3.886719 C 8.789062 3.910156 8.734375 4.007812 8.757812 4.101562 C 8.78125 4.183594 8.859375 4.238281 8.949219 4.230469 C 8.96875 4.226562 8.992188 4.222656 9.015625 4.210938 L 9.714844 3.929688 C 9.808594 3.898438 9.855469 3.800781 9.828125 3.707031 Z M 9.828125 3.707031 "/>
<path style=" stroke:none;fill-rule:nonzero;fill:rgb(0%,0%,0%);fill-opacity:1;" d="M 4 2.457031 L 3.902344 2.210938 C 3.867188 2.121094 3.765625 2.078125 3.671875 2.117188 C 3.582031 2.152344 3.539062 2.253906 3.578125 2.34375 L 3.683594 2.589844 C 3.738281 2.671875 3.847656 2.691406 3.925781 2.636719 C 3.988281 2.597656 4.015625 2.527344 4 2.457031 Z M 4 2.457031 "/>
<path style=" stroke:none;fill-rule:nonzero;fill:rgb(0%,0%,0%);fill-opacity:1;" d="M 3.671875 1.640625 L 3.410156 0.992188 C 3.367188 0.90625 3.265625 0.867188 3.175781 0.910156 C 3.097656 0.949219 3.058594 1.039062 3.085938 1.125 L 3.34375 1.773438 C 3.386719 1.859375 3.492188 1.894531 3.578125 1.855469 C 3.660156 1.816406 3.699219 1.722656 3.671875 1.640625 Z M 3.671875 1.640625 "/>
<path style=" stroke:none;fill-rule:nonzero;fill:rgb(0%,0%,0%);fill-opacity:1;" d="M 8.257812 2.390625 C 8.199219 2.351562 8.128906 2.351562 8.070312 2.390625 L 7.328125 3.132812 C 7.257812 3.203125 7.257812 3.3125 7.324219 3.382812 C 7.355469 3.414062 7.398438 3.433594 7.445312 3.433594 C 7.492188 3.433594 7.535156 3.414062 7.570312 3.382812 L 8.3125 2.632812 C 8.363281 2.550781 8.339844 2.441406 8.257812 2.390625 Z M 8.257812 2.390625 "/>
<path style=" stroke:none;fill-rule:nonzero;fill:rgb(0%,0%,0%);fill-opacity:1;" d="M 2.855469 3.132812 L 2.105469 2.390625 C 2.023438 2.335938 1.914062 2.363281 1.863281 2.445312 C 1.828125 2.5 1.828125 2.574219 1.863281 2.632812 L 2.605469 3.378906 C 2.679688 3.445312 2.792969 3.433594 2.855469 3.363281 C 2.910156 3.296875 2.910156 3.199219 2.855469 3.132812 Z M 2.855469 3.132812 "/>
<path style=" stroke:none;fill-rule:nonzero;fill:rgb(0%,0%,0%);fill-opacity:1;" d="M 5.6875 2.878906 C 4.171875 2.550781 2.675781 3.507812 2.34375 5.023438 C 2.257812 5.417969 2.257812 5.828125 2.34375 6.222656 C 2.386719 6.414062 2.574219 6.53125 2.761719 6.492188 C 2.953125 6.449219 3.074219 6.261719 3.03125 6.074219 C 2.785156 4.9375 3.503906 3.816406 4.640625 3.570312 C 5.777344 3.320312 6.898438 4.042969 7.144531 5.175781 C 7.210938 5.472656 7.210938 5.777344 7.144531 6.074219 C 7.105469 6.261719 7.222656 6.449219 7.414062 6.492188 C 7.601562 6.53125 7.789062 6.414062 7.828125 6.222656 C 8.160156 4.707031 7.203125 3.210938 5.6875 2.878906 Z M 5.6875 2.878906 "/>
<path style=" stroke:none;fill-rule:nonzero;fill:rgb(0%,0%,0%);fill-opacity:1;" d="M 9.648438 6.84375 L 5.261719 6.84375 L 5.261719 5.953125 C 5.261719 5.859375 5.183594 5.777344 5.085938 5.777344 C 4.992188 5.777344 4.914062 5.859375 4.914062 5.953125 L 4.914062 6.84375 L 0.527344 6.84375 C 0.332031 6.84375 0.175781 7 0.175781 7.191406 C 0.175781 7.386719 0.332031 7.542969 0.527344 7.542969 L 4.914062 7.542969 L 4.914062 8.875 L 4.246094 8.207031 C 4.179688 8.136719 4.066406 8.136719 4 8.207031 C 3.929688 8.273438 3.929688 8.386719 4 8.453125 L 4.964844 9.417969 C 4.996094 9.453125 5.039062 9.472656 5.085938 9.472656 C 5.140625 9.472656 5.191406 9.449219 5.222656 9.40625 L 6.175781 8.453125 C 6.238281 8.378906 6.230469 8.269531 6.15625 8.207031 C 6.089844 8.148438 5.992188 8.148438 5.929688 8.207031 L 5.261719 8.875 L 5.261719 7.542969 L 9.648438 7.542969 C 9.84375 7.542969 10 7.386719 10 7.191406 C 10 7 9.84375 6.84375 9.648438 6.84375 Z M 9.648438 6.84375 "/>
</g>
</svg>

<svg xmlns="http://www.w3.org/2000/svg" width="10pt" height="10pt" viewBox="0 0 10 10"><path d="M5.086 4.738a.174.174 0 00-.172.176v.348c0 .097.078.176.172.176a.175.175 0 00.176-.176v-.348a.175.175 0 00-.176-.176zm-4.559.7H.176A.175.175 0 000 5.612c0 .098.078.176.176.176h.351a.175.175 0 00.176-.176.175.175 0 00-.176-.176zm1.227 0H1.05a.174.174 0 00-.172.175c0 .098.078.176.172.176h.703a.175.175 0 00.176-.176.175.175 0 00-.176-.176zm7.543 0h-.875a.175.175 0 00-.176.175c0 .098.078.176.176.176h.875a.175.175 0 00.176-.176.175.175 0 00-.176-.176zM5.086 1.227a.174.174 0 00-.172.175v.88c0 .097.078.175.172.175a.175.175 0 00.176-.176v-.879a.175.175 0 00-.176-.175zm0-.7a.174.174 0 00-.172.176V.88a.174.174 0 00.348 0V.703a.175.175 0 00-.176-.176zM2.125 4.238a.128.128 0 00-.063-.027l-.593-.246a.173.173 0 00-.235.082.178.178 0 00.086.234c.004 0 .012.004.02.008l.59.238a.174.174 0 00.242-.047.171.171 0 00-.047-.242zM.945 3.75L.81 3.695a.174.174 0 00-.227.098.175.175 0 00.098.23l.132.055c.02.008.043.012.067.008a.175.175 0 00.066-.336zm5.774-2.2a.174.174 0 00-.215.09l-.332.817a.174.174 0 00.098.227v.003a.18.18 0 00.23-.097l.328-.817a.176.176 0 00-.11-.222zM6.98.902a.178.178 0 00-.214.094l-.086.211a.17.17 0 00.093.227h.004a.17.17 0 00.227-.094l.086-.215a.174.174 0 00-.11-.223zm1.618 3.305a.176.176 0 00-.243-.102l-.242.106a.174.174 0 00-.136.207c.02.094.113.156.207.137a.174.174 0 00.062-.028l.242-.097a.176.176 0 00.11-.223zm1.23-.5a.178.178 0 00-.223-.11.03.03 0 00-.02.008l-.702.282a.176.176 0 00-.125.215.18.18 0 00.191.128.194.194 0 00.067-.02l.699-.28a.178.178 0 00.113-.223zM4 2.457l-.098-.246a.172.172 0 00-.23-.094.17.17 0 00-.094.227l.106.246a.172.172 0 00.242.047c.062-.04.09-.11.074-.18zm-.328-.817L3.41.993A.176.176 0 003.176.91a.178.178 0 00-.09.215l.258.648a.18.18 0 00.234.082.178.178 0 00.094-.214zm4.586.75a.165.165 0 00-.188 0l-.742.743c-.07.07-.07.18-.004.25.031.031.074.05.121.05s.09-.019.125-.05l.742-.75a.176.176 0 00-.054-.242zm-5.403.743l-.75-.742a.173.173 0 00-.242.054.18.18 0 000 .188l.742.746a.178.178 0 00.25-.016.182.182 0 000-.23zm0 0"/><path d="M5.688 2.879a2.812 2.812 0 00-3.344 3.344.351.351 0 10.688-.148A2.104 2.104 0 014.64 3.57a2.101 2.101 0 012.504 2.504.354.354 0 00.27.418.348.348 0 00.413-.27 2.806 2.806 0 00-2.14-3.343zm0 0"/><path d="M9.648 6.844H5.262v-.89a.178.178 0 00-.176-.177.177.177 0 00-.172.176v.89H.527a.35.35 0 100 .7h4.387v1.332l-.668-.668a.17.17 0 00-.246 0 .17.17 0 000 .246l.965.965a.16.16 0 00.12.055.167.167 0 00.138-.067l.953-.953a.174.174 0 00-.02-.246.168.168 0 00-.226 0l-.668.668V7.543h4.386a.35.35 0 100-.7zm0 0"/></svg>
